!!!OTL: "Falscher Sinn" JETZT KOMMT DIE ZEIT DASS ICH WANDERN MUSS
!!!ARE: Europa, Mitteleuropa, Deutschland, Pfalz
!!!SCT: Z1165
!!!YEM: Copyright 1995, estate of Helmut Schaffrath.
**kern
*ICvox
*Ivox
*M2/4
*k[]
*C:
{16e
16f
=1
8.g
16cc
8g
16g
16f
=2
8e
8e
8d}
{8d
=3
8e
8g
8f#
8a
=4
4g
8r}
{16e
16g
=5
8cc
8b
8a
8g
=6
4a
4g
=7
8f
16g
16f
8e}
{8cc
=8
8a
16g
16f
8e
8d
=9
4c
8r}
==
!!!AGN: Liebes - Lied, Abschieds - Lied
!!!ONB: ESAC (Essen Associative Code) Database: ZUCCAL
!!!AMT: simple duple
!!!AIN: vox
!!!EED: Helmut Schaffrath
!!!EEV: 1.0
*-
